X:1
T:Daddy, What's a Train
M:4/4
L:1/8
K:D
 A,A, A,3/2 B,/2 A,3 A,/2A,/2| B,D D3/2 E/2 D3 D/2E/2| FF F3/2 F/2 GF E3/2 D/2|\
 EE EF E3 A/2A/2| AA AG F3 E| D3/2 E/2 DC B,2 DB,| A,A, D2 F F3| GG FE D4|\
